;FLAVOR:Marlin
;TIME:32659
;Filament used: 31.2526m
;Layer height: 0.28
;MINX:24.274
;MINY:9.5
;MINZ:0.28
;MAXX:206.217
;MAXY:225.5
;MAXZ:22.12
;Generated with Cura_SteamEngine 5.4.0
M140 S50
M105
M190 S50
M104 S200
M105
M109 S200
M82 ;absolute extrusion mode
; Ender 3 Custom Start G-code
G92 E0 ; Reset Extruder
G28 ; Home all axes
G1 Z2.0 F3000 ; Move Z Axis up little to prevent scratching of Heat Bed
G1 X0.1 Y20 Z0.3 F5000.0 ; Move to start position
G1 X0.1 Y200.0 Z0.3 F1500.0 E15 ; Draw the first line
G1 X0.4 Y200.0 Z0.3 F5000.0 ; Move to side a little
G1 X0.4 Y20 Z0.3 F1500.0 E30 ; Draw the second line
G92 E0 ; Reset Extruder
G1 Z2.0 F3000 ; Move Z Axis up little to prevent scratching of Heat Bed
G1 X5 Y20 Z0.3 F5000.0 ; Move over to prevent blob squish
G92 E0
G92 E0
G1 F2700 E-5
;LAYER_COUNT:79
;LAYER:0
M107
G0 F6000 X31.307 Y9.5 Z0.28
;TYPE:SKIRT
G1 F2700 E0
G1 F1200 X30.973 Y9.625 E0.01661
G1 X30.095 Y10.046 E0.06195
G1 X29.198 Y10.581 E0.11058
G1 X28.466 Y11.111 E0.15266
G1 X27.73 Y11.748 E0.19799
G1 X27.005 Y12.5 E0.24662
G1 X26.438 Y13.204 E0.28872
G1 X25.895 Y14.012 E0.33405
G1 X25.425 Y14.865 E0.3794
G1 X25.033 Y15.755 E0.42468
G1 X24.72 Y16.678 E0.47006
G1 X24.49 Y17.624 E0.5154
G1 X24.344 Y18.587 E0.56075
G1 X24.286 Y19.56 E0.60614
G1 X24.275 Y20.26 E0.63874
G1 X24.274 Y108.405 E4.74314
G1 X24.287 Y109.029 E4.7722
G1 X24.364 Y110.051 E4.81992
G1 X24.645 Y112.304 E4.92564
G1 X24.896 Y114.826 E5.04366
G1 X25.071 Y117.306 E5.15943
G1 X25.18 Y119.852 E5.27809
G1 X25.217 Y122.446 E5.39889
G1 X25.217 Y206.593 E9.31712
G1 X25.23 Y207.201 E9.34544
G1 X25.327 Y208.39 E9.40099
G1 X25.504 Y209.357 E9.44676
G1 X25.773 Y210.33 E9.49377
G1 X26.102 Y211.208 E9.53743
G1 X26.556 Y212.15 E9.58612
G1 X27.018 Y212.926 E9.62818
G1 X27.588 Y213.716 E9.67354
G1 X28.224 Y214.453 E9.71887
G1 X28.922 Y215.131 E9.76418
G1 X29.737 Y215.789 E9.81295
G1 X30.488 Y216.291 E9.85501
G1 X31.371 Y216.778 E9.90197
G1 X32.263 Y217.168 E9.9473
G1 X33.151 Y217.468 E9.99095
G1 X34.098 Y217.699 E10.03634
G1 X35.061 Y217.845 E10.08169
G1 X36.033 Y217.904 E10.12703
G1 X36.913 Y217.917 E10.16801
G1 X39.019 Y217.917 E10.26608
G1 X40.424 Y217.928 E10.3315
G1 X43.007 Y218.004 E10.45183
G1 X45.506 Y218.148 E10.56839
G1 X48.002 Y218.365 E10.68505
G1 X50.503 Y218.651 E10.80227
G1 X53 Y219.01 E10.91973
G1 X55.48 Y219.439 E11.03693
G1 X57.929 Y219.932 E11.15325
G1 X60.418 Y220.508 E11.27221
G1 X62.809 Y221.133 E11.38729
G1 X65.254 Y221.848 E11.5059
G1 X67.68 Y222.631 E11.62461
G1 X69.995 Y223.451 E11.73897
G1 X72.347 Y224.36 E11.85638
G1 X74.687 Y225.342 E11.97455
G1 X75.043 Y225.5 E11.99268
G1 F2700 E6.99268
G0 F6000 X35.564 Y207.57
G0 X32.597 Y9.5
G1 F2700 E11.99268
G1 F1200 X31.993 Y9.668 E12.02187
G1 X31.114 Y9.999 E12.06561
G1 X30.269 Y10.406 E12.10928
G1 X29.433 Y10.905 E12.15462
G1 X28.701 Y11.435 E12.1967
G1 X27.992 Y12.05 E12.2404
G1 X27.317 Y12.751 E12.28572
G1 X26.75 Y13.455 E12.32781
G1 X26.227 Y14.235 E12.37154
G1 X25.776 Y15.057 E12.41519
G1 X25.399 Y15.916 E12.45888
G1 X25.099 Y16.806 E12.50261
G1 X24.879 Y17.718 E12.54629
G1 X24.74 Y18.646 E12.58999
G1 X24.685 Y19.583 E12.63369
G1 X24.675 Y20.266 E12.6655
G1 X24.674 Y108.405 E16.76962
G1 X24.687 Y109.021 E16.79831
G1 X24.763 Y110.021 E16.84501
G1 X25.043 Y112.264 E16.95026
G1 X25.295 Y114.798 E17.06884
G1 X25.471 Y117.289 E17.18512
G1 X25.58 Y119.846 E17.30429
G1 X25.617 Y122.446 E17.42537
G1 X25.617 Y206.584 E21.34319
G1 X25.63 Y207.192 E21.37151
G1 X25.726 Y208.357 E21.42594
G1 X25.897 Y209.285 E21.46988
G1 X26.148 Y210.19 E21.51361
G1 X26.477 Y211.068 E21.55727
G1 X26.9 Y211.945 E21.60261
G1 X27.362 Y212.721 E21.64466
G1 X27.912 Y213.482 E21.68838
G1 X28.526 Y214.191 E21.73205
G1 X29.2 Y214.844 E21.77575
G1 X29.959 Y215.456 E21.82115
G1 X30.71 Y215.958 E21.86321
G1 X31.531 Y216.411 E21.90688
G1 X32.423 Y216.801 E21.95221
G1 X33.279 Y217.089 E21.99426
G1 X34.192 Y217.31 E22.038
G1 X35.12 Y217.449 E22.0817
G1 X36.057 Y217.505 E22.12541
G1 X36.919 Y217.517 E22.16555
G1 X39.022 Y217.517 E22.26347
G1 X40.436 Y217.528 E22.32932
G1 X43.019 Y217.604 E22.44964
G1 X45.54 Y217.75 E22.56723
G1 X48.036 Y217.966 E22.68389
G1 X50.56 Y218.255 E22.80218
G1 X53.057 Y218.614 E22.91965
G1 X55.556 Y219.046 E23.03774
G1 X58.019 Y219.542 E23.15473
G1 X60.508 Y220.118 E23.27369
G1 X62.921 Y220.749 E23.38983
G1 X65.377 Y221.467 E23.50898
G1 X67.803 Y222.25 E23.62768
G1 X70.129 Y223.074 E23.74258
G1 X72.502 Y223.991 E23.86104
G1 X74.849 Y224.976 E23.97956
G1 X76.031 Y225.5 E24.03977
G0 F6000 X77.067 Y225.5
G1 F1200 X76.786 Y225.397 E24.0537
G1 X75.762 Y224.95 E24.10573
G1 X75.004 Y224.607 E24.14447
G1 X72.657 Y223.622 E24.26299
G1 X70.263 Y222.697 E24.3825
G1 X67.926 Y221.869 E24.49795
G1 X65.5 Y221.086 E24.61665
G1 X63.033 Y220.365 E24.73633
G1 X60.598 Y219.728 E24.85353
G1 X58.109 Y219.152 E24.97249
G1 X55.632 Y218.653 E25.09015
G1 X53.114 Y218.218 E25.20913
G1 X50.617 Y217.859 E25.3266
G1 X48.07 Y217.567 E25.44598
G1 X45.574 Y217.352 E25.56263
G1 X43.031 Y217.204 E25.68124
G1 X40.448 Y217.128 E25.80157
G1 X39.025 Y217.117 E25.86783
G1 X36.924 Y217.117 E25.96566
G1 X36.08 Y217.106 E26.00497
G1 X35.178 Y217.053 E26.04704
G1 X34.285 Y216.921 E26.08907
G1 X33.407 Y216.71 E26.13112
G1 X32.551 Y216.422 E26.17318
G1 X31.724 Y216.06 E26.21521
G1 X30.932 Y215.625 E26.25729
G1 X30.181 Y215.123 E26.29935
G1 X29.478 Y214.556 E26.34141
G1 X28.828 Y213.929 E26.38346
G1 X28.236 Y213.247 E26.42551
G1 X27.706 Y212.516 E26.46755
G1 X27.244 Y211.74 E26.50961
G1 X26.851 Y210.927 E26.55166
G1 X26.533 Y210.082 E26.5937
G1 X26.29 Y209.212 E26.63576
G1 X26.125 Y208.324 E26.67781
G1 X26.03 Y207.183 E26.73113
G1 X26.017 Y206.575 E26.75945
G1 X26.017 Y122.446 E30.67684
G1 X25.98 Y119.84 E30.7982
G1 X25.871 Y117.272 E30.91789
G1 X25.694 Y114.77 E31.03468
G1 X25.441 Y112.224 E31.15382
G1 X25.162 Y109.99 E31.25865
G1 X25.087 Y109.012 E31.30432
G1 X25.074 Y108.405 E31.3326
G1 X25.075 Y20.271 E35.43648
G1 X25.084 Y19.606 E35.46745
G1 X25.136 Y18.704 E35.50952
G1 X25.268 Y17.811 E35.55156
G1 X25.478 Y16.933 E35.59359
G1 X25.765 Y16.076 E35.63568
G1 X26.127 Y15.249 E35.67771
G1 X26.56 Y14.457 E35.71974
G1 X27.062 Y13.706 E35.76181
G1 X27.629 Y13.002 E35.8039
G1 X28.255 Y12.352 E35.84592
G1 X28.936 Y11.759 E35.88796
G1 X29.668 Y11.229 E35.93005
G1 X30.443 Y10.766 E35.97208
G1 X31.256 Y10.373 E36.01413
G1 X32.101 Y10.053 E36.0562
G1 X32.97 Y9.81 E36.09822
G1 X33.858 Y9.644 E36.14029
G1 X34.997 Y9.548 E36.19351
G1 X35.604 Y9.535 E36.22178
G1 X193.713 Y9.536 E43.584
G1 X194.411 Y9.546 E43.6165
G1 X195.313 Y9.599 E43.65858
G1 X196.206 Y9.731 E43.70061
G1 X197.084 Y9.942 E43.74266
G1 X197.94 Y10.23 E43.78471
G1 X198.767 Y10.592 E43.82675
G1 X199.559 Y11.027 E43.86882
G1 X200.31 Y11.529 E43.91089
G1 X201.013 Y12.096 E43.95294
G1 X201.663 Y12.723 E43.995
G1 X202.255 Y13.405 E44.03705
G1 X202.785 Y14.136 E44.07909
G1 X203.247 Y14.912 E44.12114
G1 X203.64 Y15.725 E44.16319
G1 X203.958 Y16.57 E44.20523
G1 X204.201 Y17.44 E44.24729
G1 X204.366 Y18.328 E44.28935
G1 X204.461 Y19.458 E44.34215
G1 X204.474 Y20.065 E44.37042
G1 X204.474 Y104.206 E48.28838
G1 X204.511 Y106.812 E48.40974
G1 X204.62 Y109.377 E48.52929
G1 X204.798 Y111.884 E48.64632
G1 X205.049 Y114.422 E48.76507
G1 X205.328 Y116.65 E48.86963
G1 X205.402 Y117.608 E48.91437
G1 X205.417 Y118.247 E48.94413
G1 X205.416 Y206.307 E53.04457
G1 X205.407 Y207.034 E53.07843
G1 X205.356 Y207.936 E53.1205
G1 X205.225 Y208.83 E53.16257
G1 X205.016 Y209.708 E53.2046
G1 X204.73 Y210.565 E53.24666
G1 X204.369 Y211.393 E53.28872
G1 X203.937 Y212.185 E53.33073
G1 X203.436 Y212.937 E53.37281
G1 X202.87 Y213.641 E53.41487
G1 X202.245 Y214.292 E53.45689
G1 X201.564 Y214.886 E53.49897
G1 X200.833 Y215.417 E53.54104
G1 X200.059 Y215.881 E53.58306
G1 X199.246 Y216.275 E53.62513
G1 X198.402 Y216.595 E53.66716
G1 X197.532 Y216.84 E53.70925
G1 X196.645 Y217.006 E53.75127
G1 X195.494 Y217.104 E53.80506
G1 X194.887 Y217.117 E53.83333
G1 X178.867 Y217.117 E54.57929
G1 X176.261 Y217.154 E54.70064
G1 X173.696 Y217.263 E54.82019
G1 X171.189 Y217.441 E54.93722
G1 X168.648 Y217.692 E55.05611
G1 X166.14 Y218.013 E55.17385
G1 X163.635 Y218.407 E55.29193
G1 X161.148 Y218.869 E55.40971
G1 X158.634 Y219.41 E55.52946
G1 X156.188 Y220.009 E55.64672
G1 X153.744 Y220.682 E55.76476
G1 X151.309 Y221.427 E55.88333
G1 X148.916 Y222.235 E56.00094
G1 X145.823 Y223.389 E56.15466
G1 X144.943 Y223.736 E56.1987
G1 X142.539 Y224.723 E56.31971
G1 X141.282 Y225.261 E56.38338
G1 X140.62 Y225.5 E56.41615
G1 F2700 E51.41615
G0 F6000 X142.756 Y225.5
G1 F2700 E56.41615
G1 F1200 X145.237 Y224.48 E56.54106
G1 X146.103 Y224.139 E56.5844
G1 X149.196 Y222.985 E56.73812
G1 X151.565 Y222.185 E56.85455
G1 X153.956 Y221.452 E56.971
G1 X156.378 Y220.787 E57.08795
G1 X158.824 Y220.188 E57.20521
G1 X161.316 Y219.651 E57.32391
G1 X163.759 Y219.197 E57.43962
G1 X166.242 Y218.807 E57.55665
G1 X168.75 Y218.486 E57.67439
G1 X171.251 Y218.239 E57.79141
G1 X173.73 Y218.063 E57.90714
G1 X176.295 Y217.954 E58.02668
G1 X178.879 Y217.917 E58.14702
G1 X194.905 Y217.917 E58.89325
G1 X195.562 Y217.902 E58.92385
G1 X196.713 Y217.804 E58.97764
G1 X197.679 Y217.626 E59.02338
G1 X198.618 Y217.365 E59.06876
G1 X199.529 Y217.023 E59.11407
G1 X200.407 Y216.601 E59.15943
G1 X201.274 Y216.084 E59.20644
G1 X202.034 Y215.534 E59.25012
G1 X202.823 Y214.846 E59.29887
G1 X203.448 Y214.195 E59.34089
G1 X204.081 Y213.41 E59.38785
G1 X204.603 Y212.629 E59.43159
G1 X205.071 Y211.777 E59.47685
G1 X205.463 Y210.886 E59.52218
G1 X205.774 Y209.962 E59.56757
G1 X206.003 Y209.016 E59.6129
G1 X206.148 Y208.053 E59.65824
G1 X206.205 Y207.08 E59.70363
G1 X206.216 Y206.317 E59.73916
G1 X206.217 Y118.247 E63.84007
G1 X206.202 Y117.59 E63.87067
G1 X206.126 Y116.588 E63.91746
G1 X205.843 Y114.322 E64.02379
G1 X205.594 Y111.806 E64.14152
G1 X205.42 Y109.343 E64.2565
G1 X205.311 Y106.778 E64.37604
G1 X205.274 Y104.206 E64.49582
G1 X205.274 Y20.047 E68.41461
G1 X205.259 Y19.39 E68.44521
G1 X205.164 Y18.26 E68.49802
G1 X204.987 Y17.294 E68.54375
G1 X204.718 Y16.322 E68.59071
G1 X204.389 Y15.444 E68.63437
G1 X203.935 Y14.502 E68.68306
G1 X203.473 Y13.726 E68.72511
G1 X202.903 Y12.936 E68.77047
G1 X202.267 Y12.199 E68.8158
G1 X201.569 Y11.521 E68.86111
G1 X200.754 Y10.863 E68.90989
G1 X200.003 Y10.361 E68.95195
G1 X199.12 Y9.874 E68.99891
G1 X198.265 Y9.5 E69.04236
G0 F6000 X196.952 Y9.5
G1 F1200 X197.212 Y9.563 E69.05482
G1 X198.068 Y9.851 E69.09687
G1 X198.96 Y10.241 E69.1422
G1 X199.781 Y10.694 E69.18587
G1 X200.532 Y11.196 E69.22793
G1 X201.291 Y11.808 E69.27333
G1 X201.965 Y12.461 E69.31703
G1 X202.579 Y13.17 E69.3607
G1 X203.129 Y13.931 E69.40442
G1 X203.591 Y14.707 E69.44647
G1 X204.014 Y15.584 E69.49181
G1 X204.343 Y16.462 E69.53547
G1 X204.594 Y17.367 E69.5792
G1 X204.765 Y18.294 E69.6231
G1 X204.86 Y19.424 E69.6759
G1 X204.874 Y20.056 E69.70534
G1 X204.874 Y104.206 E73.62371
G1 X204.911 Y106.795 E73.74428
G1 X205.02 Y109.36 E73.86382
G1 X205.196 Y111.845 E73.97983
G1 X205.446 Y114.372 E74.09807
G1 X205.727 Y116.619 E74.20351
G1 X205.802 Y117.599 E74.24928
G1 X205.817 Y118.247 E74.27946
G1 X205.816 Y206.312 E78.38014
G1 X205.806 Y207.057 E78.41483
G1 X205.752 Y207.994 E78.45853
G1 X205.614 Y208.923 E78.50227
G1 X205.395 Y209.835 E78.54594
G1 X205.097 Y210.725 E78.58964
G1 X204.72 Y211.585 E78.63337
G1 X204.27 Y212.407 E78.677
G1 X203.748 Y213.188 E78.72074
G1 X203.159 Y213.918 E78.76442
G1 X202.534 Y214.569 E78.80644
G1 X201.799 Y215.21 E78.85185
G1 X201.039 Y215.76 E78.89554
G1 X200.233 Y216.241 E78.93924
G1 X199.388 Y216.649 E78.98294
G1 X198.51 Y216.98 E79.02663
G1 X197.606 Y217.233 E79.07034
G1 X196.679 Y217.405 E79.11424
G1 X195.528 Y217.503 E79.16803
G1 X194.896 Y217.517 E79.19747
G1 X178.873 Y217.517 E79.94357
G1 X176.278 Y217.554 E80.06441
G1 X173.713 Y217.663 E80.18396
G1 X171.22 Y217.84 E80.30033
G1 X168.699 Y218.089 E80.41829
G1 X166.191 Y218.41 E80.53603
G1 X163.697 Y218.802 E80.65359
G1 X161.232 Y219.26 E80.77033
G1 X158.729 Y219.799 E80.88955
G1 X156.283 Y220.398 E81.00681
G1 X153.85 Y221.067 E81.12431
G1 X151.437 Y221.806 E81.24182
G1 X149.056 Y222.61 E81.35884
G1 X145.963 Y223.764 E81.51256
G1 X145.09 Y224.108 E81.55625
G1 X142.691 Y225.093 E81.67701
G1 X141.739 Y225.5 E81.72522
G1 F2700 E76.72522
G0 F6000 X137.147 Y215.724
G1 F2700 E81.72522
G1 F1200 X135.434 Y216.203 E81.80804
G1 X133.799 Y215.725 E81.88736
G1 X133.047 Y214.974 E81.93685
G1 X132.936 Y214.918 E81.94264
G1 X132.765 Y214.974 E81.95102
G1 X132.138 Y215.599 E81.99224
G1 X130.498 Y216.058 E82.07154
G1 X128.932 Y215.6 E82.14752
G1 X128.307 Y214.976 E82.18864
G1 X128.196 Y214.92 E82.19443
G1 X128.025 Y214.976 E82.20281
G1 X127.275 Y215.725 E82.25216
G1 X125.563 Y216.204 E82.33494
G1 X123.928 Y215.725 E82.41428
G1 X123.275 Y215.073 E82.45724
G1 X123.164 Y215.017 E82.46303
G1 X122.993 Y215.073 E82.47141
G1 X122.339 Y215.725 E82.51441
G1 X120.627 Y216.204 E82.59719
G1 X118.992 Y215.725 E82.67653
G1 X118.24 Y214.974 E82.72601
G1 X118.129 Y214.918 E82.7318
G1 X117.958 Y214.974 E82.74018
G1 X117.331 Y215.599 E82.7814
G1 X115.691 Y216.058 E82.8607
G1 X114.125 Y215.6 E82.93668
G1 X113.5 Y214.976 E82.9778
G1 X113.389 Y214.92 E82.98359
G1 X113.218 Y214.976 E82.99197
G1 X112.468 Y215.725 E83.04133
G1 X110.756 Y216.204 E83.1241
G1 X109.12 Y215.725 E83.20348
G1 X107.812 Y214.416 E83.28965
G1 X107.776 Y214.291 E83.29571
G1 X107.706 Y214.188 E83.3015
G1 X107.53 Y214.154 E83.30985
G1 X107.27 Y214.227 E83.32243
G1 X105.773 Y213.788 E83.39507
G1 X104.576 Y212.591 E83.47389
G1 X104.136 Y211.092 E83.54664
G1 X104.574 Y209.593 E83.61936
G1 X105.708 Y208.398 E83.69607
G1 X107.272 Y207.959 E83.77171
G1 X108.836 Y208.398 E83.84735
G1 X109.875 Y209.492 E83.9176
G1 X109.985 Y209.551 E83.92342
G1 X110.074 Y209.547 E83.92756
G1 X110.757 Y209.355 E83.9606
G1 X112.467 Y209.835 E84.0433
G1 X113.175 Y210.581 E84.09119
G1 X113.285 Y210.64 E84.097
G1 X113.409 Y210.622 E84.10284
G1 X113.465 Y210.581 E84.10607
G1 X114.055 Y209.96 E84.14596
G1 X115.693 Y209.5 E84.22518
G1 X117.33 Y209.96 E84.30436
G1 X117.921 Y210.582 E84.34431
G1 X118.031 Y210.641 E84.35012
G1 X118.155 Y210.623 E84.35596
G1 X118.211 Y210.582 E84.35919
G1 X118.92 Y209.835 E84.40714
G1 X120.629 Y209.356 E84.48979
G1 X122.339 Y209.835 E84.57248
G1 X122.952 Y210.481 E84.61395
G1 X123.062 Y210.54 E84.61976
G1 X123.186 Y210.522 E84.62559
G1 X123.242 Y210.481 E84.62883
G1 X123.855 Y209.835 E84.67029
G1 X125.565 Y209.356 E84.75298
G1 X127.274 Y209.835 E84.83563
G1 X127.982 Y210.581 E84.88352
G1 X128.092 Y210.64 E84.88933
G1 X128.216 Y210.622 E84.89517
G1 X128.272 Y210.581 E84.8984
G1 X128.862 Y209.96 E84.93828
G1 X130.5 Y209.5 E85.01751
G1 X132.137 Y209.96 E85.09668
G1 X132.728 Y210.582 E85.13664
G1 X132.838 Y210.641 E85.14245
G1 X132.962 Y210.623 E85.14828
G1 X133.018 Y210.582 E85.15151
G1 X133.727 Y209.835 E85.19947
G1 X135.438 Y209.356 E85.28221
G1 X137.203 Y209.854 E85.3676
G1 X137.327 Y209.849 E85.37338
G1 X137.448 Y209.721 E85.38158
G1 X137.482 Y209.612 E85.3869
G1 X138.625 Y208.426 E85.46359
G1 X140.273 Y207.96 E85.54334
G1 X141.838 Y208.399 E85.61903
G1 X142.972 Y209.594 E85.69574
G1 X143.408 Y211.09 E85.7683
G1 X142.969 Y212.657 E85.84407
G1 X141.84 Y213.786 E85.91842
G1 X140.273 Y214.225 E85.99419
G1 X138.788 Y213.791 E86.06623
G1 X138.663 Y213.795 E86.07206
G1 X138.54 Y213.929 E86.08053
G1 X138.382 Y214.489 E86.10762
G1 X137.147 Y215.724 E86.18895
G0 F6000 X136.938 Y215.367
G1 F1200 X135.437 Y215.787 E86.26153
G1 X134.01 Y215.37 E86.33075
G1 X133.33 Y214.691 E86.3755
G1 X133.15 Y214.568 E86.38565
G1 X132.938 Y214.517 E86.3958
G1 X132.722 Y214.545 E86.40594
G1 X132.482 Y214.691 E86.41902
G1 X131.929 Y215.242 E86.45538
G1 X130.501 Y215.642 E86.52443
G1 X129.143 Y215.245 E86.59031
G1 X128.59 Y214.693 E86.62669
G1 X128.41 Y214.57 E86.63684
G1 X128.198 Y214.519 E86.647
G1 X127.982 Y214.547 E86.65714
G1 X127.742 Y214.693 E86.67022
G1 X127.066 Y215.368 E86.7147
G1 X125.566 Y215.788 E86.78724
G1 X124.139 Y215.37 E86.85647
G1 X123.558 Y214.79 E86.8947
G1 X123.378 Y214.667 E86.90485
G1 X123.166 Y214.616 E86.91501
G1 X122.95 Y214.644 E86.92515
G1 X122.71 Y214.79 E86.93823
